assets/Placard/Flat/placard_flat.svg

<svg width="32" height="32" viewBox="0 0 32 32" fill="none" xmlns="http://www.w3.org/2000/svg">
<path d="M13 5C13 3.34315 14.3431 2 16 2C17.6569 2 19 3.34315 19 5V27C19 28.6569 17.6569 30 16 30C14.3431 30 13 28.6569 13 27V5Z" fill="#F3AD61"/>
<rect x="13" y="18" width="6" height="2" fill="#D3883E"/>
<path d="M5 7.5C5 6.11929 6.11929 5 7.5 5H24.5C25.8807 5 27 6.11929 27 7.5V16.5C27 17.8807 25.8807 19 24.5 19H7.5C6.11929 19 5 17.8807 5 16.5V7.5Z" fill="#CDC4D6"/>
<path d="M11 8.5C11 8.22386 11.2239 8 11.5 8H20.5C20.7761 8 21 8.22386 21 8.5C21 8.77614 20.7761 9 20.5 9H11.5C11.2239 9 11 8.77614 11 8.5Z" fill="#998EA4"/>
<path d="M13 11.5C13 11.2239 13.2239 11 13.5 11H18.5C18.7761 11 19 11.2239 19 11.5C19 11.7761 18.7761 12 18.5 12H13.5C13.2239 12 13 11.7761 13 11.5Z" fill="#998EA4"/>
<path d="M12.5 14C12.2239 14 12 14.2239 12 14.5C12 14.7761 12.2239 15 12.5 15H19.5C19.7761 15 20 14.7761 20 14.5C20 14.2239 19.7761 14 19.5 14H12.5Z" fill="#998EA4"/>
</svg>

<svg xmlns="http://www.w3.org/2000/svg" width="32" height="32" fill="none"><path fill="#F3AD61" d="M13 5a3 3 0 1 1 6 0v22a3 3 0 1 1-6 0V5Z"/><path fill="#D3883E" d="M13 18h6v2h-6z"/><path fill="#CDC4D6" d="M5 7.5A2.5 2.5 0 0 1 7.5 5h17A2.5 2.5 0 0 1 27 7.5v9a2.5 2.5 0 0 1-2.5 2.5h-17A2.5 2.5 0 0 1 5 16.5v-9Z"/><path fill="#998EA4" d="M11 8.5a.5.5 0 0 1 .5-.5h9a.5.5 0 0 1 0 1h-9a.5.5 0 0 1-.5-.5ZM13 11.5a.5.5 0 0 1 .5-.5h5a.5.5 0 0 1 0 1h-5a.5.5 0 0 1-.5-.5ZM12.5 14a.5.5 0 0 0 0 1h7a.5.5 0 0 0 0-1h-7Z"/></svg>
